app/src/main/assets/symbols/shopping/bakery.svg

<svg xmlns:dc="http://purl.org/dc/elements/1.1/" 
   xmlns:cc="http://creativecommons.org/ns#"
   xmlns:rdf="http://www.w3.org/1999/02/22-rdf-syntax-ns#" 
   xmlns:svg="http://www.w3.org/2000/svg" 
   xmlns="http://www.w3.org/2000/svg" 
   version="1.1" 
   width="16"
   height="16"
   viewBox="0 0 16 16" 
   id="svg2">  <metadata id="metadata8">
    <rdf:RDF>
      <cc:Work rdf:about="">
        <dc:format>image/svg+xml</dc:format>
        <dc:type rdf:resource="http://purl.org/dc/dcmitype/StillImage"/>
        <dc:title/>
      </cc:Work>
    </rdf:RDF>
  </metadata>
  <defs id="defs6"/>
  <rect width="16" height="16" x="0" y="0" id="canvas" style="fill:none;stroke:none;visibility:hidden"/>
  <path d="M 6.75,3 8.25,7 6.75,7 5.25,3 C 5.25,3 3.494833,3 3.5,3 L 5,7 3.5,7 2.176907,3.5762712 C 1.291044,4.2640693 0,6.1983848 0,8 l 0,2 c 0,0.59322 0.423729,1 1,1 l 12,0 c 0.576271,0 1,-0.423729 1,-1 L 14,8 C 14,5.5355945 12.272623,3.5853602 10,3 L 11.5,7 10,7 8.5,3 c 0,0 -1.743955,0 -1.75,0 z" id="bakery" style="fill:#ac39ac;fill-opacity:1;stroke:none" transform="translate(1,1)"/>
</svg>

<?xml version="1.0" encoding="UTF-8"?>
<svg version="1.1" viewBox="0 0 16 16" xmlns="http://www.w3.org/2000/svg" xmlns:cc="http://creativecommons.org/ns#" xmlns:dc="http://purl.org/dc/elements/1.1/" xmlns:rdf="http://www.w3.org/1999/02/22-rdf-syntax-ns#">
<metadata>
<rdf:RDF>
<cc:Work rdf:about="">
<dc:format>image/svg+xml</dc:format>
<dc:type rdf:resource="http://purl.org/dc/dcmitype/StillImage"/>
<dc:title/>
</cc:Work>
</rdf:RDF>
</metadata>
<rect width="16" height="16" fill="none" visibility="hidden"/>
<path transform="translate(1,1)" d="m6.75 3 1.5 4h-1.5l-1.5-4h-1.75l1.5 4h-1.5l-1.3231-3.4237c-0.88586 0.6878-2.1769 2.6221-2.1769 4.4237v2c0 0.59322 0.42373 1 1 1h12c0.57627 0 1-0.42373 1-1v-2c0-2.4644-1.7274-4.4146-4-5l1.5 4h-1.5l-1.5-4h-1.75z" fill="#ac39ac"/>
</svg>
